Newaita/actions/24/format-font-size-more.svg

<svg height="24" viewBox="0 0 24 24" width="24" xmlns="http://www.w3.org/2000/svg"><g fill="#424242"><path d="m3.96875 2.171875c-1.097656 0-1.984375.886719-1.984375 1.984375v3.96875h1.984375v-2.976562c0-.550782.441406-.992188.992188-.992188h2.976562v-1.984375zm15.875 13.890625v2.976562c0 .550782-.441406.992188-.992188.992188h-2.976562v1.988281h3.96875c1.101562 0 1.988281-.886719 1.988281-1.988281v-3.96875zm0 0"/><path d="m21.832031 2.171875-5.964843 1.050781 1.171874 1.171875-5.542968 7.390625c-.355469.476563.242187 1.078125.71875.722656l7.390625-5.542968 1.171875 1.171875zm0 0"/><path d="m5.953125 12.09375c-1.324219 0-2.492187.484375-3.210937 1.226562l1.871093 1.019532c.351563-.160156.820313-.261719 1.339844-.261719 1.101563 0 1.984375.445313 1.984375.992187v1.390626c-.582031-.253907-1.261719-.398438-1.984375-.398438-2.199219 0-3.96875 1.328125-3.96875 2.976562v.496094h.054687c.3125 1.414063 1.941407 2.484375 3.914063 2.484375.722656 0 1.402344-.144531 1.984375-.398437v.398437h1.984375v-6.949219c0-1.648437-1.769531-2.976562-3.96875-2.976562zm0 5.953125c1.101563 0 1.984375.445313 1.984375.992187 0 .550782-.882812.992188-1.984375.992188-1.097656 0-1.984375-.441406-1.984375-.992188 0-.546874.886719-.992187 1.984375-.992187zm0 0"/></g></svg>

<?xml version="1.0" encoding="UTF-8"?>
<svg xmlns="http://www.w3.org/2000/svg" xmlns:xlink="http://www.w3.org/1999/xlink" width="24px" height="24px" viewBox="0 0 24 24" version="1.1">
<g id="surface1">
<path style=" stroke:none;fill-rule:nonzero;fill:rgb(25.882354%,25.882354%,25.882354%);fill-opacity:1;" d="M 3.96875 2.171875 C 2.871094 2.171875 1.984375 3.058594 1.984375 4.15625 L 1.984375 8.125 L 3.96875 8.125 L 3.96875 5.148438 C 3.96875 4.597656 4.410156 4.15625 4.960938 4.15625 L 7.9375 4.15625 L 7.9375 2.171875 Z M 19.84375 16.0625 L 19.84375 19.039062 C 19.84375 19.589844 19.402344 20.03125 18.851562 20.03125 L 15.875 20.03125 L 15.875 22.019531 L 19.84375 22.019531 C 20.945312 22.019531 21.832031 21.132812 21.832031 20.03125 L 21.832031 16.0625 Z M 19.84375 16.0625 "/>
<path style=" stroke:none;fill-rule:nonzero;fill:rgb(25.882354%,25.882354%,25.882354%);fill-opacity:1;" d="M 21.832031 2.171875 L 15.867188 3.222656 L 17.039062 4.394531 L 11.496094 11.785156 C 11.140625 12.261719 11.738281 12.863281 12.214844 12.507812 L 19.605469 6.964844 L 20.777344 8.136719 Z M 21.832031 2.171875 "/>
<path style=" stroke:none;fill-rule:nonzero;fill:rgb(25.882354%,25.882354%,25.882354%);fill-opacity:1;" d="M 5.953125 12.09375 C 4.628906 12.09375 3.460938 12.578125 2.742188 13.320312 L 4.613281 14.339844 C 4.964844 14.179688 5.433594 14.078125 5.953125 14.078125 C 7.054688 14.078125 7.9375 14.523438 7.9375 15.070312 L 7.9375 16.460938 C 7.355469 16.207031 6.675781 16.0625 5.953125 16.0625 C 3.753906 16.0625 1.984375 17.390625 1.984375 19.039062 L 1.984375 19.535156 L 2.039062 19.535156 C 2.351562 20.949219 3.980469 22.019531 5.953125 22.019531 C 6.675781 22.019531 7.355469 21.875 7.9375 21.621094 L 7.9375 22.019531 L 9.921875 22.019531 L 9.921875 15.070312 C 9.921875 13.421875 8.152344 12.09375 5.953125 12.09375 Z M 5.953125 18.046875 C 7.054688 18.046875 7.9375 18.492188 7.9375 19.039062 C 7.9375 19.589844 7.054688 20.03125 5.953125 20.03125 C 4.855469 20.03125 3.96875 19.589844 3.96875 19.039062 C 3.96875 18.492188 4.855469 18.046875 5.953125 18.046875 Z M 5.953125 18.046875 "/>
</g>
</svg>
